X: 10681
T: 1. SOUTH OF THE GRAMPIANS -- Strathspey
R: strathspey
N: Six Strathspeys and Reels arranged by W.B. Laybourn
B: K\"ohler's Violin Repository, v.1, 1885 p.68 #1
F: http://www.archive.org/details/klersviolinrepos01edin
Z: 2012 John Chambers <jc:trillian.mit.edu>
M: C|
L: 1/8
K: A
uc !segno!|\
A,>(B,C>D) E<CF2 | (E<C)F2 (E<C)(C<A) |\
(A,>E)(C>E) (d>c)d>e | (3fed (3cBA (3GFE (3DCB, |
A,>(B,C>D) E<CF2 | (E>C)(C>A) (E>C)(C>A) |\
(A,>E)(C>E) (d>c)d>e | (3fed (3cBA G<B B |]
ue |\
(A>e) (c>e) (.A>.e)(c>A) | (.A>.e)(c>A) (3cde (3fga |\
(A>e)(c>e) (.A>.e)(c>e) | (3fed (3cBA (.G>.B)(B>c) |
(A>e)(c>e) (.A>.e)(c>A) | (.A>.e)(c>A) (3cde (3fga |\
(3agf (3edc (3fed (3cBA | (3cBd (3cBA (3GFE "_Segue Reel."(3DCB, !segno!|]

%%sep 2 1 500

